!!!OTL: HIER STEH ICH AM BERGE
!!!ARE: Europa, Mitteleuropa, Deutschland, Schwalbach
!!!SCT: E0571B
!!!YEM: Copyright 1995, estate of Helmut Schaffrath.
**kern
*ICvox
*Ivox
*M3/4
*k[f#c#]
*D:
{4f#
=1
4e
4a
8b
8dd
=2
4dd
4cc#}
{4a
=3
4e
4a
8b
8dd
=4
4dd
4cc#}
{4f#
=5
4e
4a
8b
8dd
=6
4dd
4cc#}
{4a
=7
4e
4a
8b
8dd
=8
4dd
4cc#}
{8a
8dd
=9
4dd
4cc#
8.b
16b
=10
4b
4a}
{4e
=11
8e
8g#
8b
8dd
4dd
=12
4.cc#
8b}
{4a
=13
4dd
4cc#
8.b
16b
=14
4b
4a}
{8f#
8a
=15
4a
4g
8e
8g
=16
8f#
8a
4dd}
{4a
=17
4dd
4cc#
8.b
16b
=18
4b
4a}
{8f#
8a
=19
4a
4g
8e
8g
=20
2f#}
==
!!!AGN: Liebes - Lied
!!!ONB: ESAC (Essen Associative Code) Database: ERK1
!!!AMT: simple triple
!!!AIN: vox
!!!EED: Helmut Schaffrath
!!!EEV: 1.0
*-
